X: 13
T: Drag Her Round The Road
R: reel
M: 4/4
L: 1/8
K: Bmin
de|fBBA B2AB|dBAB d3e|fBBA B2AB|defd e2 de|
fBBA B2 AB|dBAB d3e|fBBA B2AB|defd e4||
|d3c dfaf|gfef gaba|f3e dfab|afdf edBA|
d3c dfaf|gfef gabc'|d'baf g2 d'b| afdf e4||


Tune 1148	Setting 14419

